; generated by Slic3r 1.2.9

; external perimeters extrusion width = 0.50mm
; perimeters extrusion width = 0.50mm
; infill extrusion width = 0.40mm
; solid infill extrusion width = 0.40mm
; top infill extrusion width = 0.40mm
; support material extrusion width = 0.40mm

M106 S255 ; turn on fan with fan speed set to 100%
G28 ; home all axes
G91 ; set to relative positioning
G0 Z5 F5000 ; lift nozzle
G90 ; set to absolute positioning
M190 S110 ; Wait for Bed Temperature
M109 S275 ; Wait for Extruder Temp
G29 ; Auto Bed Leveling
G91 ; set to relative positioning
G0 Z5 F5000 ; lift nozzle
G90 ; set to absolute positioning
G0 X195 Y0 ; Go Home
G92 E0 ; set extruded length zero
G21 ; set units to millimeters
G90 ; use absolute coordinates
M83 ; use relative distances for extrusion
M106 S255
G1 Z0.200 F9000.000
; next layer
G1 E-2.00000 F2400.00000
G1 X127.969 Y52.003 F9000.000
G1 E2.00000 F2400.00000
M204 S1500
G1 X129.110 Y50.054 E0.06707 F750.000
G1 X130.856 Y48.620 E0.06707
G1 X134.000 Y47.798 E0.09649
G1 X170.000 Y47.798 E1.06889
G1 X172.224 Y48.195 E0.06707
G1 X174.173 Y49.337 E0.06707 F750.000
G1 X175.607 Y51.082 E0.06707
G1 X176.393 Y53.557 E0.07709
G1 X177.595 Y65.024 E0.34235
G1 X177.630 Y65.694 E0.01992
G1 X177.625 Y77.422 E0.34823
G1 X176.423 Y107.483 E0.89327
G1 X175.938 Y109.690 E0.06707
G1 X174.719 Y111.592 E0.06707
G1 X172.918 Y112.955 E0.06707
G1 X170.000 Y113.655 E0.08910
G1 X134.000 Y113.655 E1.06889
G1 X131.776 Y113.258 E0.06707
G1 X129.827 Y112.116 E0.06707
G1 X128.393 Y110.371 E0.06707
G1 X127.572 Y107.227 E0.09649
G1 X127.572 Y54.227 E1.57364
G1 X127.958 Y52.062 E0.06529
G1 X128.325 Y52.069 F9000.000
G1 X129.464 Y50.192 E0.06518 F750.000
G1 X131.195 Y48.842 E0.06517
G1 X134.000 Y48.155 E0.08575
G1 X170.000 Y48.155 E1.06889
G1 X172.159 Y48.552 E0.06517
G1 X174.035 Y49.690 E0.06517 F750.000
G1 X175.384 Y51.422 E0.06517
G1 X176.038 Y53.594 E0.06736
G1 X177.240 Y65.061 E0.34235
G1 X177.273 Y65.694 E0.01881
G1 X177.268 Y77.408 E0.34780
G1 X176.066 Y107.469 E0.89327
G1 X175.584 Y109.610 E0.06517
G1 X174.371 Y111.440 E0.06517
G1 X172.588 Y112.719 E0.06517
G1 X170.000 Y113.298 E0.07874
G1 X134.000 Y113.298 E1.06889
G1 X131.841 Y112.901 E0.06517
G1 X129.965 Y111.763 E0.06517
G1 X128.616 Y110.032 E0.06517
G1 X127.929 Y107.227 E0.08575
G1 X127.929 Y54.227 E1.57364
G1 X128.315 Y52.128 E0.06337
G1 X128.682 Y52.136 F9000.000
G1 X129.817 Y50.334 E0.06323 F750.000
G1 X131.532 Y49.073 E0.06320
G1 X134.000 Y48.513 E0.07515
G1 X170.000 Y48.513 E1.06889
G1 X172.091 Y48.909 E0.06320
G1 X173.893 Y50.044 E0.06320 F750.000
G1 X175.154 Y51.759 E0.06320
G1 X175.683 Y53.631 E0.05778
G1 X176.885 Y65.099 E0.34235
G1 X176.916 Y65.694 E0.01771
G1 X176.911 Y77.394 E0.34738
G1 X175.710 Y107.455 E0.89327
G1 X175.230 Y109.529 E0.06320
G1 X174.024 Y111.283 E0.06320
G1 X172.260 Y112.475 E0.06320
G1 X170.000 Y112.941 E0.06852
G1 X134.000 Y112.941 E1.06889
G1 X131.909 Y112.544 E0.06320
G1 X130.107 Y111.410 E0.06320
G1 X128.846 Y109.695 E0.06320
G1 X128.286 Y107.227 E0.07515
G1 X128.286 Y54.227 E1.57364
G1 X128.671 Y52.195 E0.06140
G1 X129.039 Y52.206 F9000.000
G1 X130.169 Y50.482 E0.06122 F750.000
G1 X131.866 Y49.313 E0.06118
G1 X134.000 Y48.870 E0.06471
G1 X170.000 Y48.870 E1.06889
G1 X172.022 Y49.266 E0.06118
G1 X173.745 Y50.396 E0.06118 F750.000
G1 X174.914 Y52.093 E0.06118
G1 X175.328 Y53.668 E0.04837
G1 X176.530 Y65.136 E0.34235
G1 X176.559 Y65.694 E0.01660
G1 X176.554 Y77.380 E0.34695
G1 X175.353 Y107.441 E0.89327
G1 X174.876 Y109.445 E0.06118
G1 X173.678 Y111.122 E0.06118
G1 X171.936 Y112.222 E0.06118
G1 X170.000 Y112.584 E0.05847
G1 X134.000 Y112.584 E1.06889
G1 X131.978 Y112.188 E0.06118
G1 X130.255 Y111.057 E0.06118
G1 X129.086 Y109.360 E0.06118
G1 X128.643 Y107.227 E0.06471
G1 X128.643 Y54.227 E1.57364
G1 X129.027 Y52.265 E0.05936
G1 E-2.00000 F2400.00000
G1 X141.893 Y102.613 F9000.000
G1 E2.00000 F2400.00000
G1 X141.716 Y103.302 E0.02114 F450.000
G1 X141.363 Y103.944 E0.02174
G1 X140.862 Y104.478 E0.02174
G1 X140.244 Y104.870 E0.02174
G1 X139.547 Y105.096 E0.02174
G1 X138.817 Y105.142 E0.02174
G1 X138.097 Y105.005 E0.02174
G1 X137.435 Y104.693 E0.02174
G1 X136.870 Y104.227 E0.02174
G1 X136.440 Y103.634 E0.02174
G1 X136.169 Y102.950 E0.02185
G1 X136.081 Y102.206 E0.02222
G1 X136.170 Y101.500 E0.02114
G1 X136.440 Y100.819 E0.02174
G1 X136.870 Y100.227 E0.02174
G1 X137.437 Y99.758 E0.02185
G1 X138.117 Y99.444 E0.02222
G1 X138.817 Y99.311 E0.02114 F450.000
G1 X139.547 Y99.357 E0.02174
G1 X140.244 Y99.583 E0.02174
G1 X140.862 Y99.976 E0.02174
G1 X141.363 Y100.510 E0.02174
G1 X141.716 Y101.151 E0.02174
G1 X141.899 Y101.864 E0.02185
G1 X141.894 Y102.553 E0.02044
G1 X141.537 Y102.566 F9000.000
G1 X141.382 Y103.170 E0.01850 F450.000
G1 X141.072 Y103.732 E0.01906
G1 X140.633 Y104.200 E0.01906
G1 X140.091 Y104.544 E0.01906
G1 X139.480 Y104.743 E0.01906
G1 X138.839 Y104.783 E0.01906
G1 X138.208 Y104.663 E0.01906
G1 X137.627 Y104.389 E0.01906
G1 X137.133 Y103.980 E0.01906
G1 X136.755 Y103.461 E0.01906
G1 X136.518 Y102.862 E0.01913
G1 X136.441 Y102.208 E0.01955
G1 X136.519 Y101.590 E0.01850
G1 X136.755 Y100.993 E0.01906
G1 X137.133 Y100.473 E0.01906
G1 X137.629 Y100.063 E0.01913
G1 X138.227 Y99.787 E0.01955
G1 X138.839 Y99.670 E0.01850 F450.000
G1 X139.480 Y99.711 E0.01906
G1 X140.091 Y99.909 E0.01906
G1 X140.633 Y100.253 E0.01906
G1 X141.072 Y100.721 E0.01906
G1 X141.382 Y101.284 E0.01906
G1 X141.542 Y101.908 E0.01913
G1 X141.537 Y102.506 E0.01776
G1 X141.180 Y102.520 F9000.000
G1 X141.047 Y103.037 E0.01587 F450.000
G1 X140.781 Y103.521 E0.01639
G1 X140.403 Y103.923 E0.01639
G1 X139.937 Y104.219 E0.01639
G1 X139.412 Y104.389 E0.01639
G1 X138.862 Y104.424 E0.01639
G1 X138.320 Y104.321 E0.01639
G1 X137.820 Y104.086 E0.01639
G1 X137.395 Y103.734 E0.01639
G1 X137.071 Y103.287 E0.01639
G1 X136.867 Y102.773 E0.01641
G1 X136.801 Y102.209 E0.01687
G1 X136.868 Y101.679 E0.01587
G1 X137.071 Y101.166 E0.01639
G1 X137.395 Y100.720 E0.01639
G1 X137.821 Y100.367 E0.01641
G1 X138.337 Y100.130 E0.01687
G1 X138.862 Y100.029 E0.01587 F450.000
G1 X139.412 Y100.064 E0.01639
G1 X139.937 Y100.235 E0.01639
G1 X140.403 Y100.530 E0.01639
G1 X140.781 Y100.933 E0.01639
G1 X141.047 Y101.416 E0.01639
G1 X141.184 Y101.952 E0.01641
G1 X141.180 Y102.460 E0.01509
G1 X141.487 Y102.775 F9000.000
G1 X141.984 Y102.604 F9000.000
G1 X142.165 Y100.056 F9000.000
G1 X141.177 Y96.021 F9000.000
G1 X162.823 Y96.021 F9000.000
G1 X162.104 Y99.317 F9000.000
G1 X161.545 Y101.410 F9000.000
G1 X161.507 Y102.021 F9000.000
G1 X161.498 Y102.164 F9000.000
G1 X161.992 Y102.227 F9000.000
G1 X162.081 Y102.206 F9000.000
G1 X162.170 Y101.500 E0.02114 F450.000
G1 X162.440 Y100.819 E0.02174
G1 X162.870 Y100.227 E0.02174
G1 X163.437 Y99.758 E0.02185
G1 X164.117 Y99.444 E0.02222
G1 X164.817 Y99.311 E0.02114 F450.000
G1 X165.547 Y99.357 E0.02174
G1 X166.244 Y99.583 E0.02174
G1 X166.862 Y99.976 E0.02174
G1 X167.363 Y100.510 E0.02174
G1 X167.716 Y101.151 E0.02174
G1 X167.898 Y101.861 E0.02174
G1 X167.898 Y102.593 E0.02174
G1 X167.716 Y103.302 E0.02174
G1 X167.363 Y103.944 E0.02174
G1 X166.862 Y104.478 E0.02174
G1 X166.244 Y104.870 E0.02174
G1 X165.547 Y105.096 E0.02174
G1 X164.817 Y105.142 E0.02174
G1 X164.097 Y105.005 E0.02174
G1 X163.435 Y104.693 E0.02174
G1 X162.870 Y104.227 E0.02174
G1 X162.440 Y103.634 E0.02174
G1 X162.169 Y102.950 E0.02185
G1 X162.088 Y102.266 E0.02044
G1 X162.441 Y102.208 F9000.000
G1 X162.519 Y101.590 E0.01850 F450.000
G1 X162.755 Y100.993 E0.01906
G1 X163.133 Y100.473 E0.01906
G1 X163.629 Y100.063 E0.01913
G1 X164.227 Y99.787 E0.01955
G1 X164.839 Y99.670 E0.01850 F450.000
G1 X165.480 Y99.711 E0.01906
G1 X166.091 Y99.909 E0.01906
G1 X166.633 Y100.253 E0.01906
G1 X167.072 Y100.721 E0.01906
G1 X167.382 Y101.284 E0.01906
G1 X167.541 Y101.906 E0.01906
G1 X167.541 Y102.548 E0.01906
G1 X167.382 Y103.170 E0.01906
G1 X167.072 Y103.732 E0.01906
G1 X166.633 Y104.200 E0.01906
G1 X166.091 Y104.544 E0.01906
G1 X165.480 Y104.743 E0.01906
G1 X164.839 Y104.783 E0.01906
G1 X164.208 Y104.663 E0.01906
G1 X163.627 Y104.389 E0.01906
G1 X163.133 Y103.980 E0.01906
G1 X162.755 Y103.461 E0.01906
G1 X162.518 Y102.862 E0.01913
G1 X162.448 Y102.267 E0.01776
G1 X162.801 Y102.209 F9000.000
G1 X162.868 Y101.679 E0.01587 F450.000
G1 X163.071 Y101.166 E0.01639
G1 X163.395 Y100.720 E0.01639
G1 X163.821 Y100.367 E0.01641
G1 X164.337 Y100.130 E0.01687
G1 X164.862 Y100.029 E0.01587 F450.000
G1 X165.412 Y100.064 E0.01639
G1 X165.937 Y100.235 E0.01639
G1 X166.403 Y100.530 E0.01639
G1 X166.781 Y100.933 E0.01639
G1 X167.047 Y101.416 E0.01639
G1 X167.184 Y101.951 E0.01639
G1 X167.184 Y102.503 E0.01639
G1 X167.047 Y103.037 E0.01639
G1 X166.781 Y103.521 E0.01639
G1 X166.403 Y103.923 E0.01639
G1 X165.937 Y104.219 E0.01639
G1 X165.412 Y104.389 E0.01639
G1 X164.862 Y104.424 E0.01639
G1 X164.320 Y104.321 E0.01639
G1 X163.820 Y104.086 E0.01639
G1 X163.395 Y103.734 E0.01639
G1 X163.071 Y103.287 E0.01639
G1 X162.867 Y102.773 E0.01641
G1 X162.808 Y102.269 E0.01509
G1 X162.463 Y101.994 F9000.000
G1 X165.914 Y93.141 F9000.000
G1 X165.914 Y83.141 E0.29691 F750.000
G1 X169.086 Y83.141 E0.09417
G1 X169.086 Y106.313 E0.68800
G1 X160.914 Y106.313 E0.24263
G1 X160.914 Y99.167 E0.21217
G1 X160.822 Y98.470 E0.02085
G1 X160.529 Y97.762 E0.02276
G1 X160.049 Y97.148 E0.02315
G1 X159.461 Y96.696 E0.02202
G1 X158.756 Y96.404 E0.02265
G1 X158.060 Y96.313 E0.02085
G1 X145.940 Y96.313 E0.35985
G1 X145.244 Y96.404 E0.02085
G1 X144.539 Y96.696 E0.02265
G1 X143.934 Y97.161 E0.02265
G1 X143.469 Y97.766 E0.02265
G1 X143.177 Y98.470 E0.02265
G1 X143.086 Y99.167 E0.02085
G1 X143.086 Y106.313 E0.21217
G1 X134.914 Y106.313 E0.24263
G1 X134.914 Y83.141 E0.68800
G1 X138.086 Y83.141 E0.09417
G1 X138.086 Y93.141 E0.29691
G1 X165.854 Y93.141 E0.82448
G1 X165.557 Y92.784 F9000.000
G1 X165.557 Y82.784 E0.29691 F750.000
G1 X169.443 Y82.784 E0.11538
G1 X169.443 Y106.670 E0.70920
G1 X160.557 Y106.670 E0.26383
G1 X160.557 Y99.190 E0.22207
G1 X160.475 Y98.564 E0.01876
G1 X160.218 Y97.944 E0.01993
G1 X159.796 Y97.403 E0.02036
G1 X159.281 Y97.008 E0.01927
G1 X158.663 Y96.752 E0.01986
G1 X158.036 Y96.670 E0.01876
G1 X145.963 Y96.670 E0.35846
G1 X145.337 Y96.752 E0.01876
G1 X144.719 Y97.008 E0.01986
G1 X144.188 Y97.415 E0.01986
G1 X143.781 Y97.946 E0.01986
G1 X143.525 Y98.564 E0.01986
G1 X143.443 Y99.190 E0.01876
G1 X143.443 Y106.670 E0.22207
G1 X134.557 Y106.670 E0.26383
G1 X134.557 Y82.784 E0.70920
G1 X138.443 Y82.784 E0.11538
G1 X138.443 Y92.784 E0.29691
G1 X165.497 Y92.784 E0.80327
G1 X165.200 Y92.427 F9000.000
G1 X165.200 Y82.427 E0.29691 F750.000
G1 X169.800 Y82.427 E0.13658
G1 X169.800 Y107.027 E0.73041
G1 X160.200 Y107.027 E0.28504
G1 X160.200 Y99.214 E0.23198
G1 X160.127 Y98.657 E0.01667
G1 X159.906 Y98.125 E0.01709
G1 X159.542 Y97.659 E0.01757
G1 X159.101 Y97.320 E0.01652
G1 X158.570 Y97.100 E0.01707
G1 X158.013 Y97.027 E0.01667
G1 X145.987 Y97.027 E0.35707
G1 X145.430 Y97.100 E0.01667
G1 X144.899 Y97.320 E0.01707
G1 X144.443 Y97.670 E0.01707
G1 X144.093 Y98.126 E0.01707
G1 X143.873 Y98.657 E0.01707
G1 X143.800 Y99.214 E0.01667
G1 X143.800 Y107.027 E0.23198
G1 X134.200 Y107.027 E0.28504
G1 X134.200 Y82.427 E0.73041
G1 X138.800 Y82.427 E0.13658
G1 X138.800 Y92.427 E0.29691
G1 X165.140 Y92.427 E0.78207
G1 X165.600 Y92.427 F9000.000
G1 X160.750 Y97.661 F9000.000
G1 X162.988 Y99.900 E0.09412 F750.000
G1 X163.265 Y99.671 E0.01068
G1 X156.943 Y93.349 E0.26583
G1 X157.448 Y93.349 E0.01503
G1 X163.587 Y99.487 E0.25811
G1 X163.933 Y99.328 E0.01133
G1 X157.954 Y93.349 E0.25140
G1 X158.460 Y93.349 E0.01503
G1 X164.319 Y99.208 E0.24635
G1 X164.743 Y99.127 E0.01285
G1 X158.965 Y93.349 E0.24294
G1 X159.471 Y93.349 E0.01503
G1 X165.248 Y99.125 E0.24288
G1 X165.830 Y99.202 E0.01747
G1 X159.977 Y93.349 E0.24611
G1 X160.482 Y93.349 E0.01503
G1 X166.696 Y99.562 E0.26126
G1 X167.664 Y100.531 F9000.000
G1 X168.878 Y101.744 E0.05103 F750.000
G1 X168.878 Y101.239 E0.01503
G1 X160.988 Y93.349 E0.33175
G1 X161.494 Y93.349 E0.01503
G1 X168.878 Y100.733 E0.31049
G1 X168.878 Y100.227 E0.01503
G1 X161.999 Y93.349 E0.28922
G1 X162.505 Y93.349 E0.01503
G1 X168.878 Y99.722 E0.26796
G1 X168.878 Y99.216 E0.01503
G1 X163.011 Y93.349 E0.24670
G1 X163.516 Y93.349 E0.01503
G1 X168.878 Y98.710 E0.22544
G1 X168.878 Y98.205 E0.01503
G1 X164.022 Y93.349 E0.20418
G1 X164.528 Y93.349 E0.01503
G1 X168.878 Y97.699 E0.18292
G1 X168.878 Y97.193 E0.01503
G1 X165.033 Y93.349 E0.16165
G1 X165.539 Y93.349 E0.01503
G1 X168.878 Y96.688 E0.14039
G1 X168.878 Y96.182 E0.01503
G1 X166.045 Y93.349 E0.11913
G1 X166.122 Y92.920 E0.01295
G1 X168.878 Y95.676 E0.11589
G1 X168.878 Y95.171 E0.01503
G1 X166.122 Y92.414 E0.11589
G1 X166.122 Y91.909 E0.01503
G1 X168.878 Y94.665 E0.11589
G1 X168.878 Y94.159 E0.01503
G1 X166.122 Y91.403 E0.11589
G1 X166.122 Y90.897 E0.01503
G1 X168.878 Y93.654 E0.11589
G1 X168.878 Y93.148 E0.01503
G1 X166.122 Y90.392 E0.11589
G1 X166.122 Y89.886 E0.01503
G1 X168.878 Y92.642 E0.11589
G1 X168.878 Y92.137 E0.01503
G1 X166.122 Y89.380 E0.11589
G1 X166.122 Y88.875 E0.01503
G1 X168.878 Y91.631 E0.11589
G1 X168.878 Y91.125 E0.01503
G1 X166.122 Y88.369 E0.11589
G1 X166.122 Y87.863 E0.01503
G1 X168.878 Y90.620 E0.11589
G1 X168.878 Y90.114 E0.01503
G1 X166.122 Y87.358 E0.11589
G1 X166.122 Y86.852 E0.01503
G1 X168.878 Y89.608 E0.11589
G1 X168.878 Y89.103 E0.01503
G1 X166.122 Y86.346 E0.11589
G1 X166.122 Y85.841 E0.01503
G1 X168.878 Y88.597 E0.11589
G1 X168.878 Y88.091 E0.01503
G1 X166.122 Y85.335 E0.11589
G1 X166.122 Y84.829 E0.01503
G1 X168.878 Y87.585 E0.11589
G1 X168.878 Y87.080 E0.01503
G1 X166.122 Y84.324 E0.11589
G1 X166.122 Y83.818 E0.01503
G1 X168.878 Y86.574 E0.11589
G1 X168.878 Y86.068 E0.01503
G1 X166.158 Y83.349 E0.11436
G1 X166.664 Y83.349 E0.01503
G1 X168.878 Y85.563 E0.09310
G1 X168.878 Y85.057 E0.01503
G1 X167.170 Y83.349 E0.07184
G1 X167.675 Y83.349 E0.01503
G1 X168.878 Y84.551 E0.05058
G1 X168.878 Y84.046 E0.01503
G1 X168.181 Y83.349 E0.02931
G1 X168.687 Y83.349 E0.01503
G1 X168.878 Y83.540 E0.00805
G1 X166.000 Y96.227 F9000.000
G1 X163.386 Y96.335 F9000.000
G1 X161.293 Y95.336 F9000.000
G1 X160.657 Y95.120 F9000.000
G1 X159.504 Y96.621 F9000.000
G1 X159.565 Y96.477 F9000.000
G1 X156.437 Y93.349 E0.13153 F750.000
G1 X155.931 Y93.349 E0.01503
G1 X158.768 Y96.186 E0.11929
G1 X158.186 Y96.109 E0.01746
G1 X155.426 Y93.349 E0.11607
G1 X154.920 Y93.349 E0.01503
G1 X157.676 Y96.105 E0.11589
G1 X157.171 Y96.105 E0.01503
G1 X154.414 Y93.349 E0.11589
G1 X153.909 Y93.349 E0.01503
G1 X156.665 Y96.105 E0.11589
G1 X156.159 Y96.105 E0.01503
G1 X153.403 Y93.349 E0.11589
G1 X152.897 Y93.349 E0.01503
G1 X155.654 Y96.105 E0.11589
G1 X155.148 Y96.105 E0.01503
G1 X152.392 Y93.349 E0.11589
G1 X151.886 Y93.349 E0.01503
G1 X154.642 Y96.105 E0.11589
G1 X154.137 Y96.105 E0.01503
G1 X151.380 Y93.349 E0.11589
G1 X150.875 Y93.349 E0.01503
G1 X153.631 Y96.105 E0.11589
G1 X153.125 Y96.105 E0.01503
G1 X150.369 Y93.349 E0.11589
G1 X149.863 Y93.349 E0.01503
G1 X152.619 Y96.105 E0.11589
G1 X152.114 Y96.105 E0.01503
G1 X149.358 Y93.349 E0.11589
G1 X148.852 Y93.349 E0.01503
G1 X151.608 Y96.105 E0.11589
G1 X151.102 Y96.105 E0.01503
G1 X148.346 Y93.349 E0.11589
G1 X147.841 Y93.349 E0.01503
G1 X150.597 Y96.105 E0.11589
G1 X150.091 Y96.105 E0.01503
G1 X147.335 Y93.349 E0.11589
G1 X146.829 Y93.349 E0.01503
G1 X149.585 Y96.105 E0.11589
G1 X149.080 Y96.105 E0.01503
G1 X146.324 Y93.349 E0.11589
G1 X145.818 Y93.349 E0.01503
G1 X148.574 Y96.105 E0.11589
G1 X148.068 Y96.105 E0.01503
G1 X145.312 Y93.349 E0.11589
G1 X144.807 Y93.349 E0.01503
G1 X147.563 Y96.105 E0.11589
G1 X147.057 Y96.105 E0.01503
G1 X144.301 Y93.349 E0.11589
G1 X143.795 Y93.349 E0.01503
G1 X146.551 Y96.105 E0.11589
G1 X146.046 Y96.105 E0.01503
G1 X143.290 Y93.349 E0.11589
G1 X142.784 Y93.349 E0.01503
G1 X145.593 Y96.158 E0.11812
G1 X145.166 Y96.237 E0.01291
G1 X142.278 Y93.349 E0.12143
G1 X141.773 Y93.349 E0.01503
G1 X144.809 Y96.385 E0.12766
G1 X144.455 Y96.537 E0.01144
G1 X141.267 Y93.349 E0.13406
G1 X140.761 Y93.349 E0.01503
G1 X144.169 Y96.756 E0.14329
G1 X143.883 Y96.976 E0.01072
G1 X140.256 Y93.349 E0.15252
G1 X139.750 Y93.349 E0.01503
