; generated by Slic3r 1.2.9

; external perimeters extrusion width = 0.50mm
; perimeters extrusion width = 0.50mm
; infill extrusion width = 0.40mm
; solid infill extrusion width = 0.40mm
; top infill extrusion width = 0.40mm
; support material extrusion width = 0.40mm

M106 S255 ; turn on fan with fan speed set to 100%
G28 ; home all axes
G91 ; set to relative positioning
G0 Z5 F5000 ; lift nozzle
G90 ; set to absolute positioning
M190 S110 ; Wait for Bed Temperature
M109 S275 ; Wait for Extruder Temp
G29 ; Auto Bed Leveling
G91 ; set to relative positioning
G0 Z5 F5000 ; lift nozzle
G90 ; set to absolute positioning
G0 X195 Y0 ; Go Home
G92 E0 ; set extruded length zero
G21 ; set units to millimeters
G90 ; use absolute coordinates
M83 ; use relative distances for extrusion
M106 S255
G1 Z0.200 F9000.000
; next layer
G1 E-2.00000 F2400.00000
G1 X127.683 Y47.871 F9000.000
G1 E2.00000 F2400.00000
M204 S1500
G1 X128.825 Y45.921 E0.06707 F750.000
G1 X130.570 Y44.488 E0.06707
G1 X133.715 Y43.666 E0.09649
G1 X169.715 Y43.666 E1.06889
G1 X171.938 Y44.063 E0.06707
G1 X173.888 Y45.205 E0.06707 F750.000
G1 X175.321 Y46.950 E0.06707
G1 X176.108 Y49.424 E0.07709
G1 X177.310 Y60.892 E0.34235
G1 X177.345 Y61.562 E0.01992
G1 X177.340 Y73.290 E0.34823
G1 X176.138 Y103.351 E0.89327
G1 X175.652 Y105.557 E0.06707
G1 X174.434 Y107.459 E0.06707
G1 X172.633 Y108.822 E0.06707
G1 X169.715 Y109.523 E0.08910
G1 X133.715 Y109.523 E1.06889
G1 X131.491 Y109.126 E0.06707
G1 X129.542 Y107.984 E0.06707
G1 X128.108 Y106.239 E0.06707
G1 X127.286 Y103.094 E0.09649
G1 X127.286 Y50.094 E1.57364
G1 X127.673 Y47.930 E0.06529
G1 X128.040 Y47.936 F9000.000
G1 X129.178 Y46.059 E0.06518 F750.000
G1 X130.909 Y44.710 E0.06517
G1 X133.715 Y44.023 E0.08575
G1 X169.715 Y44.023 E1.06889
G1 X171.873 Y44.420 E0.06517
G1 X173.750 Y45.558 E0.06517 F750.000
G1 X175.099 Y47.289 E0.06517
G1 X175.753 Y49.462 E0.06736
G1 X176.955 Y60.929 E0.34235
G1 X176.988 Y61.562 E0.01881
G1 X176.983 Y73.276 E0.34780
G1 X175.781 Y103.337 E0.89327
G1 X175.298 Y105.478 E0.06517
G1 X174.086 Y107.308 E0.06517
G1 X172.303 Y108.586 E0.06517
G1 X169.715 Y109.166 E0.07874
G1 X133.715 Y109.166 E1.06889
G1 X131.556 Y108.769 E0.06517
G1 X129.680 Y107.631 E0.06517
G1 X128.330 Y105.900 E0.06517
G1 X127.643 Y103.094 E0.08575
G1 X127.643 Y50.094 E1.57364
G1 X128.029 Y47.995 E0.06337
G1 X128.397 Y48.004 F9000.000
G1 X129.531 Y46.202 E0.06323 F750.000
G1 X131.246 Y44.941 E0.06320
G1 X133.715 Y44.380 E0.07515
G1 X169.715 Y44.380 E1.06889
G1 X171.806 Y44.777 E0.06320
G1 X173.607 Y45.911 E0.06320 F750.000
G1 X174.868 Y47.626 E0.06320
G1 X175.398 Y49.499 E0.05778
G1 X176.599 Y60.966 E0.34235
G1 X176.631 Y61.562 E0.01771
G1 X176.626 Y73.261 E0.34738
G1 X175.424 Y103.323 E0.89327
G1 X174.945 Y105.397 E0.06320
G1 X173.739 Y107.151 E0.06320
G1 X171.975 Y108.343 E0.06320
G1 X169.715 Y108.809 E0.06852
G1 X133.715 Y108.809 E1.06889
G1 X131.623 Y108.412 E0.06320
G1 X129.822 Y107.278 E0.06320
G1 X128.561 Y105.563 E0.06320
G1 X128.001 Y103.094 E0.07515
G1 X128.001 Y50.094 E1.57364
G1 X128.386 Y48.063 E0.06140
G1 X128.754 Y48.074 F9000.000
G1 X129.884 Y46.349 E0.06122 F750.000
G1 X131.581 Y45.181 E0.06118
G1 X133.715 Y44.737 E0.06471
G1 X169.715 Y44.737 E1.06889
G1 X171.737 Y45.134 E0.06118
G1 X173.460 Y46.264 E0.06118 F750.000
G1 X174.628 Y47.961 E0.06118
G1 X175.043 Y49.536 E0.04837
G1 X176.244 Y61.003 E0.34235
G1 X176.273 Y61.562 E0.01660
G1 X176.269 Y73.247 E0.34695
G1 X175.067 Y103.308 E0.89327
G1 X174.591 Y105.313 E0.06118
G1 X173.393 Y106.989 E0.06118
G1 X171.650 Y108.090 E0.06118
G1 X169.715 Y108.452 E0.05847
G1 X133.715 Y108.452 E1.06889
G1 X131.693 Y108.055 E0.06118
G1 X129.970 Y106.925 E0.06118
G1 X128.801 Y105.228 E0.06118
G1 X128.358 Y103.094 E0.06471
G1 X128.358 Y50.094 E1.57364
G1 X128.742 Y48.133 E0.05936
G1 E-2.00000 F2400.00000
G1 X141.614 Y97.732 F9000.000
G1 E2.00000 F2400.00000
G1 X141.608 Y98.480 E0.02222 F450.000
G1 X141.431 Y99.170 E0.02114
G1 X141.078 Y99.812 E0.02174
G1 X140.577 Y100.345 E0.02174
G1 X139.959 Y100.738 E0.02174
G1 X139.262 Y100.964 E0.02174
G1 X138.531 Y101.010 E0.02174
G1 X137.812 Y100.873 E0.02174
G1 X137.149 Y100.561 E0.02174
G1 X136.585 Y100.094 E0.02174
G1 X136.155 Y99.502 E0.02174
G1 X135.884 Y98.817 E0.02185
G1 X135.796 Y98.074 E0.02222
G1 X135.885 Y97.368 E0.02114
G1 X136.155 Y96.687 E0.02174
G1 X136.585 Y96.095 E0.02174
G1 X137.152 Y95.625 E0.02185
G1 X137.832 Y95.312 E0.02222
G1 X138.531 Y95.179 E0.02114 F450.000
G1 X139.262 Y95.225 E0.02174
G1 X139.959 Y95.451 E0.02174
G1 X140.577 Y95.843 E0.02174
G1 X141.078 Y96.377 E0.02174
G1 X141.431 Y97.019 E0.02174
G1 X141.599 Y97.674 E0.02007
G1 X141.257 Y97.776 F9000.000
G1 X141.251 Y98.434 E0.01955 F450.000
G1 X141.096 Y99.037 E0.01850
G1 X140.787 Y99.600 E0.01906
G1 X140.347 Y100.068 E0.01906
G1 X139.805 Y100.412 E0.01906
G1 X139.195 Y100.611 E0.01906
G1 X138.554 Y100.651 E0.01906
G1 X137.923 Y100.531 E0.01906
G1 X137.342 Y100.257 E0.01906
G1 X136.847 Y99.848 E0.01906
G1 X136.470 Y99.328 E0.01906
G1 X136.233 Y98.729 E0.01913
G1 X136.156 Y98.076 E0.01955
G1 X136.234 Y97.457 E0.01850
G1 X136.470 Y96.860 E0.01906
G1 X136.847 Y96.341 E0.01906
G1 X137.344 Y95.930 E0.01913
G1 X137.942 Y95.655 E0.01955
G1 X138.554 Y95.538 E0.01850 F450.000
G1 X139.195 Y95.578 E0.01906
G1 X139.805 Y95.777 E0.01906
G1 X140.347 Y96.121 E0.01906
G1 X140.787 Y96.589 E0.01906
G1 X141.096 Y97.151 E0.01906
G1 X141.242 Y97.717 E0.01735
G1 X140.899 Y97.819 F9000.000
G1 X140.895 Y98.387 E0.01687 F450.000
G1 X140.762 Y98.905 E0.01587
G1 X140.496 Y99.388 E0.01639
G1 X140.118 Y99.791 E0.01639
G1 X139.652 Y100.086 E0.01639
G1 X139.127 Y100.257 E0.01639
G1 X138.576 Y100.292 E0.01639
G1 X138.034 Y100.188 E0.01639
G1 X137.535 Y99.953 E0.01639
G1 X137.110 Y99.602 E0.01639
G1 X136.785 Y99.155 E0.01639
G1 X136.582 Y98.641 E0.01641
G1 X136.515 Y98.077 E0.01687
G1 X136.582 Y97.547 E0.01587
G1 X136.785 Y97.034 E0.01639
G1 X137.110 Y96.587 E0.01639
G1 X137.536 Y96.235 E0.01641
G1 X138.052 Y95.997 E0.01687
G1 X138.576 Y95.897 E0.01587 F450.000
G1 X139.127 Y95.932 E0.01639
G1 X139.652 Y96.102 E0.01639
G1 X140.118 Y96.398 E0.01639
G1 X140.496 Y96.800 E0.01639
G1 X140.762 Y97.284 E0.01639
G1 X140.884 Y97.761 E0.01463
G1 X141.260 Y97.992 F9000.000
G1 X141.699 Y97.717 F9000.000
G1 X141.134 Y94.095 F9000.000
G1 X142.273 Y91.254 F9000.000
G1 X145.649 Y90.594 F9000.000
G1 X163.715 Y92.094 F9000.000
G1 X161.714 Y95.448 F9000.000
G1 X161.260 Y97.278 F9000.000
G1 X161.222 Y97.889 F9000.000
G1 X161.213 Y98.032 F9000.000
G1 X161.707 Y98.094 F9000.000
G1 X161.796 Y98.074 F9000.000
G1 X161.885 Y97.368 E0.02114 F450.000
G1 X162.155 Y96.687 E0.02174
G1 X162.585 Y96.095 E0.02174
G1 X163.152 Y95.625 E0.02185
G1 X163.832 Y95.312 E0.02222
G1 X164.531 Y95.179 E0.02114 F450.000
G1 X165.262 Y95.225 E0.02174
G1 X165.959 Y95.451 E0.02174
G1 X166.577 Y95.843 E0.02174
G1 X167.078 Y96.377 E0.02174
G1 X167.431 Y97.019 E0.02174
G1 X167.613 Y97.728 E0.02174
G1 X167.613 Y98.461 E0.02174
G1 X167.431 Y99.170 E0.02174
G1 X167.078 Y99.812 E0.02174
G1 X166.577 Y100.345 E0.02174
G1 X165.959 Y100.738 E0.02174
G1 X165.262 Y100.964 E0.02174
G1 X164.531 Y101.010 E0.02174
G1 X163.812 Y100.873 E0.02174
G1 X163.149 Y100.561 E0.02174
G1 X162.585 Y100.094 E0.02174
G1 X162.155 Y99.502 E0.02174
G1 X161.884 Y98.817 E0.02185
G1 X161.803 Y98.134 E0.02044
G1 X162.156 Y98.076 F9000.000
G1 X162.234 Y97.457 E0.01850 F450.000
G1 X162.470 Y96.860 E0.01906
G1 X162.847 Y96.341 E0.01906
G1 X163.344 Y95.930 E0.01913
G1 X163.942 Y95.655 E0.01955
G1 X164.554 Y95.538 E0.01850 F450.000
G1 X165.195 Y95.578 E0.01906
G1 X165.805 Y95.777 E0.01906
G1 X166.347 Y96.121 E0.01906
G1 X166.787 Y96.589 E0.01906
G1 X167.096 Y97.151 E0.01906
G1 X167.256 Y97.773 E0.01906
G1 X167.256 Y98.415 E0.01906
G1 X167.096 Y99.037 E0.01906
G1 X166.787 Y99.600 E0.01906
G1 X166.347 Y100.068 E0.01906
G1 X165.805 Y100.412 E0.01906
G1 X165.195 Y100.611 E0.01906
G1 X164.554 Y100.651 E0.01906
G1 X163.923 Y100.531 E0.01906
G1 X163.342 Y100.257 E0.01906
G1 X162.847 Y99.848 E0.01906
G1 X162.470 Y99.328 E0.01906
G1 X162.233 Y98.729 E0.01913
G1 X162.163 Y98.135 E0.01776
G1 X162.515 Y98.077 F9000.000
G1 X162.582 Y97.547 E0.01587 F450.000
G1 X162.785 Y97.034 E0.01639
G1 X163.110 Y96.587 E0.01639
G1 X163.536 Y96.235 E0.01641
G1 X164.052 Y95.997 E0.01687
G1 X164.576 Y95.897 E0.01587 F450.000
G1 X165.127 Y95.932 E0.01639
G1 X165.652 Y96.102 E0.01639
G1 X166.118 Y96.398 E0.01639
G1 X166.496 Y96.800 E0.01639
G1 X166.762 Y97.284 E0.01639
G1 X166.899 Y97.818 E0.01639
G1 X166.899 Y98.370 E0.01639
G1 X166.762 Y98.905 E0.01639
G1 X166.496 Y99.388 E0.01639
G1 X166.118 Y99.791 E0.01639
G1 X165.652 Y100.086 E0.01639
G1 X165.127 Y100.257 E0.01639
G1 X164.576 Y100.292 E0.01639
G1 X164.034 Y100.188 E0.01639
G1 X163.535 Y99.953 E0.01639
G1 X163.110 Y99.602 E0.01639
G1 X162.785 Y99.155 E0.01639
G1 X162.582 Y98.641 E0.01641
G1 X162.522 Y98.137 E0.01509
G1 X162.178 Y97.862 F9000.000
G1 X160.629 Y92.180 F9000.000
G1 X145.655 Y92.180 E0.44460 F750.000
G1 X144.958 Y92.272 E0.02085
G1 X144.254 Y92.564 E0.02265
G1 X143.648 Y93.028 E0.02265
G1 X143.184 Y93.633 E0.02265
G1 X142.892 Y94.338 E0.02265
G1 X142.801 Y95.035 E0.02085
G1 X142.801 Y102.180 E0.21217
G1 X134.629 Y102.180 E0.24263
G1 X134.629 Y79.009 E0.68800
G1 X137.801 Y79.009 E0.09417
G1 X137.801 Y89.009 E0.29691
G1 X165.629 Y89.009 E0.82626
G1 X165.629 Y79.009 E0.29691
G1 X168.801 Y79.009 E0.09417
G1 X168.801 Y102.180 E0.68800
G1 X160.629 Y102.180 E0.24263
G1 X160.629 Y92.240 E0.29513
G1 X160.272 Y92.537 F9000.000
G1 X145.678 Y92.537 E0.43330 F750.000
G1 X145.052 Y92.620 E0.01876
G1 X144.434 Y92.876 E0.01986
G1 X143.903 Y93.283 E0.01986
G1 X143.496 Y93.813 E0.01986
G1 X143.240 Y94.431 E0.01986
G1 X143.158 Y95.058 E0.01876
G1 X143.158 Y102.537 E0.22207
G1 X134.272 Y102.537 E0.26383
G1 X134.272 Y78.651 E0.70920
G1 X138.158 Y78.651 E0.11538
G1 X138.158 Y88.651 E0.29691
G1 X165.272 Y88.651 E0.80505
G1 X165.272 Y78.651 E0.29691
G1 X169.158 Y78.651 E0.11538
G1 X169.158 Y102.537 E0.70920
G1 X160.272 Y102.537 E0.26383
G1 X160.272 Y92.597 E0.29513
G1 X159.915 Y92.894 F9000.000
G1 X145.702 Y92.894 E0.42201 F750.000
G1 X145.145 Y92.968 E0.01667
G1 X144.614 Y93.188 E0.01707
G1 X144.158 Y93.538 E0.01707
G1 X143.808 Y93.994 E0.01707
G1 X143.588 Y94.525 E0.01707
G1 X143.515 Y95.081 E0.01667
G1 X143.515 Y102.894 E0.23198
G1 X133.915 Y102.894 E0.28504
G1 X133.915 Y78.294 E0.73041
G1 X138.515 Y78.294 E0.13658
G1 X138.515 Y88.294 E0.29691
G1 X164.915 Y88.294 E0.78385
G1 X164.915 Y78.294 E0.29691
G1 X169.515 Y78.294 E0.13658
G1 X169.515 Y102.894 E0.73041
G1 X159.915 Y102.894 E0.28504
G1 X159.915 Y92.954 E0.29513
G1 X159.915 Y92.494 F9000.000
G1 X159.186 Y89.216 F9000.000
G1 X164.962 Y94.993 E0.24288 F750.000
G1 X165.545 Y95.070 E0.01747
G1 X159.691 Y89.216 E0.24611
G1 X160.197 Y89.216 E0.01503
G1 X166.411 Y95.430 E0.26126
G1 X167.379 Y96.398 F9000.000
G1 X168.593 Y97.612 E0.05103 F750.000
G1 X168.593 Y97.106 E0.01503
G1 X160.703 Y89.216 E0.33175
G1 X161.208 Y89.216 E0.01503
G1 X168.593 Y96.601 E0.31049
G1 X168.593 Y96.095 E0.01503
G1 X161.714 Y89.216 E0.28922
G1 X162.220 Y89.216 E0.01503
G1 X168.593 Y95.589 E0.26796
G1 X168.593 Y95.084 E0.01503
G1 X162.725 Y89.216 E0.24670
G1 X163.231 Y89.216 E0.01503
G1 X168.593 Y94.578 E0.22544
G1 X168.593 Y94.072 E0.01503
G1 X163.737 Y89.216 E0.20418
G1 X164.242 Y89.216 E0.01503
G1 X168.593 Y93.567 E0.18292
G1 X168.593 Y93.061 E0.01503
G1 X164.748 Y89.216 E0.16165
G1 X165.254 Y89.216 E0.01503
G1 X168.593 Y92.555 E0.14039
G1 X168.593 Y92.050 E0.01503
G1 X165.759 Y89.216 E0.11913
G1 X165.837 Y88.788 E0.01295
G1 X168.593 Y91.544 E0.11589
G1 X168.593 Y91.038 E0.01503
G1 X165.837 Y88.282 E0.11589
G1 X165.837 Y87.776 E0.01503
G1 X168.593 Y90.533 E0.11589
G1 X168.593 Y90.027 E0.01503
G1 X165.837 Y87.271 E0.11589
G1 X165.837 Y86.765 E0.01503
G1 X168.593 Y89.521 E0.11589
G1 X168.593 Y89.016 E0.01503
G1 X165.837 Y86.259 E0.11589
G1 X165.837 Y85.754 E0.01503
G1 X168.593 Y88.510 E0.11589
G1 X168.593 Y88.004 E0.01503
G1 X165.837 Y85.248 E0.11589
G1 X165.837 Y84.742 E0.01503
G1 X168.593 Y87.499 E0.11589
G1 X168.593 Y86.993 E0.01503
G1 X165.837 Y84.237 E0.11589
G1 X165.837 Y83.731 E0.01503
G1 X168.593 Y86.487 E0.11589
G1 X168.593 Y85.982 E0.01503
G1 X165.837 Y83.225 E0.11589
G1 X165.837 Y82.720 E0.01503
G1 X168.593 Y85.476 E0.11589
G1 X168.593 Y84.970 E0.01503
G1 X165.837 Y82.214 E0.11589
G1 X165.837 Y81.708 E0.01503
G1 X168.593 Y84.465 E0.11589
G1 X168.593 Y83.959 E0.01503
G1 X165.837 Y81.203 E0.11589
G1 X165.837 Y80.697 E0.01503
G1 X168.593 Y83.453 E0.11589
G1 X168.593 Y82.948 E0.01503
G1 X165.837 Y80.191 E0.11589
G1 X165.837 Y79.686 E0.01503
G1 X168.593 Y82.442 E0.11589
G1 X168.593 Y81.936 E0.01503
G1 X165.873 Y79.216 E0.11436
G1 X166.379 Y79.216 E0.01503
G1 X168.593 Y81.431 E0.09310
G1 X168.593 Y80.925 E0.01503
G1 X166.884 Y79.216 E0.07184
G1 X167.390 Y79.216 E0.01503
G1 X168.593 Y80.419 E0.05058
G1 X168.593 Y79.913 E0.01503
G1 X167.896 Y79.216 E0.02931
G1 X168.401 Y79.216 E0.01503
G1 X168.593 Y79.408 E0.00805
G1 X167.727 Y97.252 F9000.000
G1 X168.593 Y98.118 E0.03639 F750.000
G1 X168.593 Y98.623 E0.01503
G1 X167.821 Y97.851 E0.03246
G1 X167.821 Y98.357 E0.01503
G1 X168.593 Y99.129 E0.03246
G1 X168.593 Y99.635 E0.01503
G1 X167.730 Y98.772 E0.03626
G1 X167.627 Y99.175 E0.01235
G1 X168.593 Y100.140 E0.04060
G1 X168.593 Y100.646 E0.01503
G1 X167.452 Y99.506 E0.04795
G1 X167.273 Y99.832 E0.01107
G1 X168.593 Y101.152 E0.05549
G1 X168.593 Y101.657 E0.01503
G1 X167.043 Y100.107 E0.06518
G1 X166.798 Y100.368 E0.01064
G1 X168.402 Y101.973 E0.06747
G1 X167.897 Y101.973 E0.01503
G1 X166.518 Y100.594 E0.05794
G1 X166.209 Y100.791 E0.01089
G1 X167.391 Y101.973 E0.04969
G1 X166.885 Y101.973 E0.01503
G1 X165.875 Y100.963 E0.04246
G1 X165.494 Y101.087 E0.01193
G1 X166.380 Y101.973 E0.03725
G1 X165.874 Y101.973 E0.01503
G1 X165.080 Y101.179 E0.03336
G1 X164.605 Y101.209 E0.01417
G1 X165.368 Y101.973 E0.03210
G1 X164.863 Y101.973 E0.01503
G1 X164.032 Y101.142 E0.03491
G1 X163.280 Y100.896 E0.02353
G1 X164.357 Y101.973 E0.04527
G1 X163.851 Y101.973 E0.01503
G1 X160.837 Y98.958 E0.12676
G1 X160.837 Y99.464 E0.01503
G1 X163.346 Y101.973 E0.10549
G1 X162.840 Y101.973 E0.01503
G1 X160.837 Y99.969 E0.08423
G1 X160.837 Y100.475 E0.01503
G1 X162.334 Y101.973 E0.06297
G1 X161.829 Y101.973 E0.01503
G1 X160.837 Y100.981 E0.04171
G1 X160.837 Y101.486 E0.01503
G1 X161.323 Y101.973 E0.02045
G1 X161.902 Y99.517 F9000.000
G1 X160.837 Y98.452 E0.04478 F750.000
G1 X160.837 Y97.947 E0.01503
G1 X161.659 Y98.769 E0.03459
G1 X161.592 Y98.196 E0.01717
G1 X160.837 Y97.441 E0.03174
G1 X160.837 Y96.935 E0.01503
G1 X161.638 Y97.737 E0.03370
G1 X161.711 Y97.304 E0.01304
G1 X160.837 Y96.430 E0.03677
G1 X160.837 Y95.924 E0.01503
G1 X161.855 Y96.942 E0.04280
G1 X162.007 Y96.588 E0.01144
G1 X160.837 Y95.418 E0.04920
G1 X160.837 Y94.913 E0.01503
G1 X162.219 Y96.295 E0.05815
G1 X162.432 Y96.003 E0.01076
G1 X160.837 Y94.407 E0.06709
G1 X160.837 Y93.901 E0.01503
G1 X162.703 Y95.768 E0.07847
G1 X162.980 Y95.539 E0.01068
G1 X160.837 Y93.395 E0.09011
G1 X160.837 Y92.890 E0.01503
G1 X163.302 Y95.355 E0.10365
G1 X163.648 Y95.195 E0.01133
G1 X160.837 Y92.384 E0.11821
G1 X160.931 Y91.973 E0.01255
G1 X158.174 Y89.216 E0.11589
G1 X158.680 Y89.216 E0.01503
G1 X164.458 Y94.994 E0.24294
G1 X164.033 Y95.075 E0.01285
G1 X160.837 Y91.878 E0.13442
G1 X160.425 Y91.973 E0.01255
G1 X157.669 Y89.216 E0.11589
G1 X157.163 Y89.216 E0.01503
G1 X159.919 Y91.973 E0.11589
G1 X159.414 Y91.973 E0.01503
G1 X156.657 Y89.216 E0.11589
G1 X156.152 Y89.216 E0.01503
G1 X158.908 Y91.973 E0.11589
G1 X158.402 Y91.973 E0.01503
G1 X155.646 Y89.216 E0.11589
G1 X155.140 Y89.216 E0.01503
G1 X157.897 Y91.973 E0.11589
G1 X157.391 Y91.973 E0.01503
G1 X154.635 Y89.216 E0.11589
G1 X154.129 Y89.216 E0.01503
G1 X156.885 Y91.973 E0.11589
G1 X156.380 Y91.973 E0.01503
G1 X153.623 Y89.216 E0.11589
G1 X153.118 Y89.216 E0.01503
G1 X155.874 Y91.973 E0.11589
G1 X155.368 Y91.973 E0.01503
G1 X152.612 Y89.216 E0.11589
G1 X152.106 Y89.216 E0.01503
G1 X154.863 Y91.973 E0.11589
G1 X154.357 Y91.973 E0.01503
